!!!COM: Bach, Johann Sebastian
!!!OTL: Valet will ich dir geben
!!!ONM: No. 24
!!!OCL: Erk
!!!YOE: Riemenschneider, Albert
!!!OPR: 371 Harmonized Chorales and 69 Chorale Melodies with Figured Bass
!!!OPT: Bach Chorale Harmonizations
**kern	**kern	**kern	**kern
! bass	! tenor	! alto	! soprano
*M4/4	*M4/4	*M4/4	*M4/4
*D:	*D:	*D:	*D:
8D	8F#	4A	4d
8C#	8E	.	.
=1	=1	=1	=1
8D	8F#	4d	4a
8E	8G	.	.
8F#	8A	4d	4a
8D	8F#	.	.
8G	4G	4d	4b
8F#	.	.	.
4E	8G	[4g	4cc#
.	8A	.	.
=2	=2	=2	=2
8BB	4B	4g]	2dd
8C#	.	.	.
4D	8A	8f#	.
.	8G	8e	.
4DD;	4A;	4f#;	4dd;
4d	4a	8a	4ff#
.	.	8b	.
=3	=3	=3	=3
4A#	4g	4cc#	4ee
8B	4f#	4b	4dd
8An	.	.	.
4G#	4fn	4b	4dd
4A	4e	4a	4cc#
=4	=4	=4	=4
2.D;	2.f#;	2.a;	2.dd;
!! Repeat from the beginning.
8D	8F#	4A	4d
8C#	8E	.	.
=1	=1	=1	=1
8D	8F#	4d	4a
8E	8G	.	.
8F#	8A	4d	4a
8D	8F#	.	.
8G	4G	4d	4b
8F#	.	.	.
4E	8G	[4g	4cc#
.	8A	.	.
=2	=2	=2	=2
8BB	4B	4g]	2dd
8C#	.	.	.
4D	8A	8f#	.
.	8G	8e	.
4DD;	4A;	4f#;	4dd;
4d	4a	8a	4ff#
.	.	8b	.
=3	=3	=3	=3
4A#	4g	4cc#	4ee
8B	4f#	4b	4dd
8An	.	.	.
4G#	4fn	4b	4dd
4A	4e	4a	4cc#
=4	=4	=4	=4
2.D;	2.f#;	2.a;	2.dd;
!! Continuing.
4D	8f#	4a	8dd
.	8g	.	8ee
=5	=5	=5	=5
8d	4a	4dd	4ff#
8c#	.	.	.
8B	4d	8dd	4ff#
8A	.	8cc#	.
8G#	8e	8b	[4ee
8E	8d	8g#	.
8F#	8c#	8a	8ee]
8G#	8B	8b	8dd
=6	=6	=6	=6
8A	4A	8e	8cc#
8G#	.	8f#	8b
8F#	4G#	4g#	4cc#
8E#	.	.	.
4F#;	4c#;	4f#;	4a;
4F#	8f#	[4a	4cc#
.	8e	.	.
=7	=7	=7	=7
8B	4d	8a]	4dd
8BB	.	8g#	.
8C#	4e	[4a	4cc#
8D	.	.	.
8E	8e	4a]	4b
8D	8f#	.	.
8E	8e	4g#	4b
8EE	8d	.	.
=8	=8	=8	=8
2.AA;	2.c#;	2.e;	2.a;
4C#	4A	4e	4a
=9	=9	=9	=9
8D	4A	4d	8f#
8E	.	.	8g
8F#	8d	4d	4a
8D	8cn	.	.
4G	8B	8d	4b
.	8c#	8e	.
8F#	8d	4f#	4a
8E	8cn	.	.
=10	=10	=10	=10
4D#	2B	4f#	4a
4E	.	4e	8g
.	.	.	8f#
4BB;	4B;	4d#;	4f#;
4FF#	4cn	4dn	4a
=11	=11	=11	=11
8GG	4B	4d	4g
8AA	.	.	.
8BB	4B	[4d	4f#
8AA	.	.	.
8GG	4B	4d]	4e
8EE	.	.	.
4AA	8A	4c#	4e
.	8G	.	.
=12	=12	=12	=12
2.DD;	2.F#;	2.A;	2.d;
==	==	==	==
*-	*-	*-	*-
!!!CDT: 1685/3//-1750/7/28
!!!OCY: Deutschland
!!!AGN: chorale
!!!AST: Baroque
!!!AIN: vox
!!!YOY: 1941
!!!PPP: New York; London
!!!PPR: G. Schirmer
!!!ENC: David Huron
!!!EED: David Huron
!!!YEN: United States of America
!!!YER: 1992
!!!YEC: Copyright 1992 David Huron
!!!YEM: Rights to all derivative electronic formats reserved.
!!!YER: March 20, 1996
!!!AMT: simple quadruple
!!!EEV: 1.1
